X:27
T:Reel Ti-Mé
C:Marcel Messervier
Z:robin.beech@mcgill.ca
R:reel
M:4/4
L:1/8
K:D
fg | afbf afde | f2 e2 dBAG | FAdA FAdf | e2 B2 B2 ef | gfga gfed |
ccce c2 B2 | AB (3cBA gfga | baga f2 fg | afbf afde | f2 e2 dBAG | FAdA FAdf |
e2 B2 B2 ef | gfga gfed | ccce c2 B2 | AB (3cBA gecc |1 dfaf d2 :|2 dBAF D2 |:
E2 | D2 FA dAFA | G2 BdgdBd | AAeA AfAA | gAAA fece |
D2 FA dAFA | G2 Bd gdBd | AAeA AfAA | gece d2 :|
